src/icons/white-bluesky.svg

<svg width="20" height="18" viewBox="0 0 20 18" fill="none" xmlns="http://www.w3.org/2000/svg">
<path d="M4.33526 1.60649C6.62822 3.27686 9.09455 6.66366 10.0001 8.48122C10.9056 6.6638 13.3718 3.27683 15.6649 1.60649C17.3193 0.401226 20 -0.531342 20 2.43614C20 3.02879 19.6498 7.41468 19.4445 8.12671C18.7306 10.6022 16.1292 11.2336 13.8152 10.8515C17.86 11.5195 18.8889 13.7321 16.6668 15.9448C12.4465 20.147 10.601 14.8904 10.1278 13.5435C10.0412 13.2965 10.0006 13.181 10 13.2793C9.9994 13.181 9.95884 13.2965 9.87215 13.5435C9.39925 14.8904 7.55378 20.1472 3.33322 15.9448C1.11103 13.7321 2.13995 11.5193 6.18483 10.8515C3.87077 11.2336 1.26934 10.6022 0.555548 8.12671C0.350163 7.41461 0 3.02872 0 2.43614C0 -0.531342 2.68074 0.401226 4.33515 1.60649H4.33526Z" fill="#FAF9F6"/>
</svg>

<svg xmlns="http://www.w3.org/2000/svg" width="20" height="18" fill="none"><path fill="#FAF9F6" d="M4.335 1.606C6.628 3.276 9.095 6.664 10 8.481c.906-1.817 3.372-5.204 5.665-6.875C17.319.401 20-.53 20 2.436c0 .593-.35 4.979-.555 5.69-.714 2.476-3.316 3.108-5.63 2.726 4.045.668 5.074 2.88 2.852 5.093-4.22 4.202-6.066-1.055-6.54-2.402-.086-.246-.126-.362-.127-.264 0-.098-.041.018-.128.264-.473 1.347-2.318 6.604-6.539 2.402-2.222-2.213-1.193-4.426 2.852-5.094-2.314.383-4.916-.249-5.63-2.724C.35 7.415 0 3.029 0 2.437 0-.532 2.68.4 4.335 1.606Z"/></svg>
